X:249
%%titlespace -15
%%musicspace -11
T:Shepherd and Shepherdess
M:4/4
L:1/8
K:A
"A"cde2 A2a2 | "D"f4 f2a2 | "A"e3f e2c2 | "E"BAGA B2c2 | 
"A"A2 E4 Bc | "D"d2B2 "E"edcB | "A"cde2 "E"B2c2 | "A"A4 A2B2 ::
"A"c2A2 "D"d2B2 | "A"c2A2 A3B | "A"c2A2 e2c2 | "E"BAGA B2c2 | 
"A"A2 E4 Bc | "D"d2B2 "E"edcB | "A"cde2 "E"B2c2 |1 "A"A4 A2B2 :|2 "A"A4 A4 ||
|:"D"agfg a2b2 | a2g2 f2e2 | "A"cde2 "D"fga2 | "A"A2G2 F2E2 | 
"D"F2D2 d2B2 | "A"c2A2 "E"edcB | "A"cde2 "E"B2c2 | "A"A4 A4 :|